assets/Male sign/Flat/male_sign_flat.svg

<svg width="32" height="32" viewBox="0 0 32 32" fill="none" xmlns="http://www.w3.org/2000/svg">
<path d="M2 6C2 3.79086 3.79086 2 6 2H26C28.2091 2 30 3.79086 30 6V26C30 28.2091 28.2091 30 26 30H6C3.79086 30 2 28.2091 2 26V6Z" fill="#00A6ED"/>
<path d="M20.7812 6C20.229 6 19.7812 6.44772 19.7812 7C19.7812 7.55228 20.229 8 20.7812 8H22.6935L19.1238 11.6137C17.7667 10.5536 16.0587 9.92188 14.2031 9.92188C9.78485 9.92188 6.20312 13.5036 6.20312 17.9219C6.20312 22.3402 9.78485 25.9219 14.2031 25.9219C18.6214 25.9219 22.2031 22.3402 22.2031 17.9219C22.2031 16.08 21.5807 14.3836 20.5347 13.0314L24 9.52328V11.2969C24 11.8492 24.4477 12.2969 25 12.2969C25.5523 12.2969 26 11.8492 26 11.2969V7C26 6.44772 25.5523 6 25 6H20.7812ZM14.2031 11.9219C17.5168 11.9219 20.2031 14.6082 20.2031 17.9219C20.2031 21.2356 17.5168 23.9219 14.2031 23.9219C10.8894 23.9219 8.20312 21.2356 8.20312 17.9219C8.20312 14.6082 10.8894 11.9219 14.2031 11.9219Z" fill="white"/>
</svg>

<svg xmlns="http://www.w3.org/2000/svg" width="32" height="32" fill="none"><path fill="#00A6ED" d="M2 6a4 4 0 0 1 4-4h20a4 4 0 0 1 4 4v20a4 4 0 0 1-4 4H6a4 4 0 0 1-4-4V6Z"/><path fill="#fff" d="M20.781 6a1 1 0 0 0 0 2h1.913l-3.57 3.614a8 8 0 1 0 1.41 1.418L24 9.522v1.774a1 1 0 1 0 2 0V7a1 1 0 0 0-1-1h-4.219Zm-6.578 5.922a6 6 0 1 1 0 12 6 6 0 0 1 0-12Z"/></svg>
